icons/icon-download.svg

<?xml version="1.0" encoding="UTF-8"?>
<svg width="18px" height="19px" viewBox="0 0 18 19" version="1.1" xmlns="http://www.w3.org/2000/svg" xmlns:xlink="http://www.w3.org/1999/xlink">
    <title>dripIcons / download Copy</title>
    <g id="Components" stroke="none" stroke-width="1" fill="none" fill-rule="evenodd">
        <g id="dripIcons-/-download-Copy" fill="#7EBCC6">
            <path d="M8.25237209,13.5199778 C8.44911628,13.7226444 8.71869767,13.8368556 9,13.8368556 C9.28151163,13.8368556 9.55088372,13.7226444 9.74783721,13.5199778 L13.9227907,9.22048889 C14.3271628,8.80417778 14.3202558,8.1358 13.9073023,7.72772222 C13.4943488,7.32006667 12.8316977,7.32682222 12.4273256,7.74334444 L10.0465116,10.1951889 L10.0465116,1.05555556 C10.0465116,0.472677778 9.57788372,0 9,0 C8.42211628,0 7.95348837,0.472677778 7.95348837,1.05555556 L7.95348837,10.1949778 L5.57309302,7.74334444 C5.16872093,7.32682222 4.50648837,7.32006667 4.09311628,7.72772222 C3.68037209,8.1358 3.67346512,8.80396667 4.07783721,9.22048889 L8.25237209,13.5199778 Z M18,12.1961 L18,17.9444444 C18,18.5273222 17.5313721,19 16.9534884,19 L1.04651163,19 C0.468627907,19 0,18.5273222 0,17.9444444 L0,12.1961 C0,11.6132222 0.468627907,11.1405444 1.04651163,11.1405444 C1.62439535,11.1405444 2.09302326,11.6132222 2.09302326,12.1961 L2.09302326,16.8888889 L15.9069767,16.8888889 L15.9069767,12.1961 C15.9069767,11.6132222 16.3756047,11.1405444 16.9534884,11.1405444 C17.5313721,11.1405444 18,11.6132222 18,12.1961 L18,12.1961 Z" id="download"></path>
        </g>
    </g>
</svg>

<svg xmlns="http://www.w3.org/2000/svg" width="18" height="19" xmlns:v="https://vecta.io/nano"><path d="M8.252 13.52a1.04 1.04 0 0 0 .748.317c.282 0 .551-.114.748-.317l4.175-4.299c.404-.416.397-1.085-.015-1.493a1.04 1.04 0 0 0-1.48.016l-2.381 2.452v-9.14A1.05 1.05 0 0 0 9 0a1.05 1.05 0 0 0-1.047 1.056v9.139l-2.38-2.452a1.04 1.04 0 0 0-1.48-.016c-.413.408-.42 1.076-.015 1.493l4.175 4.299zM18 12.196v5.748A1.05 1.05 0 0 1 16.953 19H1.047A1.05 1.05 0 0 1 0 17.944v-5.748a1.05 1.05 0 0 1 1.047-1.056 1.05 1.05 0 0 1 1.047 1.056v4.693h13.814v-4.693a1.05 1.05 0 0 1 1.047-1.056A1.05 1.05 0 0 1 18 12.196h0z" fill="#046183" fill-rule="evenodd"/></svg>
